X:1
T:Title
%%score [ 1 2 3 4 ]
L:1/8
Q:1/4=108
M:3/4
K:Ab
V:1 treble nm="Soprano" snm="S"
V:2 treble nm="Contralto" snm="C"
V:3 treble-8 nm="Tenore" snm="T"
V:4 bass nm="Basso" snm="B"
V:1
"^Moderato"!p! c2 B4 | (ce) dc BA | c2 B2- B z |!<(! c2 F2 GA | c2!<)! B2 A2- | %5
w: A- ve,|A- * ve * Ma- *|ri- a *|gra- * ti- a|ple- * *|
 A2!>(! G2- G z!>)! | (e3 f) dc | c2 B4 |!<(! e4-!<)! ef | e>A BB de |!f! f4 B2 |!ff! c4- c z | %12
w: * na *|Do- * mi- nus|te- cum|be- * ne-|di- cta tu in mu- li-|e- ri-|bus *|
!pp! (c2 B3 G) | c2 B4 |!<(! ce dc!<)! B2 | B6"^rit..." |!pp!!<(! c6 | d6!<)! |!f! f6 | %19
w: et be- ne-|di- ctus|fruc- tus ven- tris tu-|i|Je-|sus,|Je-|
!>(! e6!>)! ||!pp! c2 B4 | (ce) dc BA | c2 B2- B z |!p! c2 F2 GA | c2 B2 A!<(!G | A4!<)! B2 | %26
w: sus.|San- cta|San- * cta * Ma- *|ri- a, *|San- cta Ma- *|ri- a, Ma- ter|De- *|
 B4-!>(! B z!>)! |!mf! e3 f"^espressivo" dc | c2 B4 |!f! e4 ef | !>!e>B B2 z2 | %31
w: i *|o- * ra pro|no- bis|pec- ca- *|to- ri- bus|
"^rit..."!ppp! c2 A2 z2 | A"^sostenuto, dolce, legato"B cA Bd | c4 c2- | c2 z2 z2 | %35
w: nunc *|et in ho- ra mor- tis|no- strae||
"^più lento" z2 d2 e2 | f2 e2 d2 | c2 B2- B z | e2 A4- | A2 A2 uB2 |!mp! e6 | e4"^rit..." e2 | %42
w: A- *||men, * *|A- men,|* A- men,|A-|men. A-|
 [ea]6 |] %43
w: men.|
V:2
!p! A2 F4 | (AB AG FE | A2 G2- G) z |!<(! =E2 F4-!<)! | F3 _F E2 | =D2!>(! E2- E z!>)! | (B3 d AG | %7
w: A- ve,|A- * ve * Ma- *|ri- a *|gra- *|* ti- a|ple- na *|Do- * mi- nus|
 ^F2 G G) =FE | B>A A B AF | F>E E2 z2 |!f!!<(! z F GA G>G |!ff! G4- G z |!pp! (F2 F3) F | F2 F4 | %14
w: te- cum be- * ne-|di- cta tu be- * ne-|di- cta tu|in mu- li- e- ri-|bus *|et be- ne-|di- ctus|
 F3 A!<)! AA | GF G4"^rit..." |!pp!!<(! G6 | B6!<)! |!f! d2 c2!>(! B2 | B6!>)! ||!pp! A2 F4 | %21
w: fruc- tus ven- tris|tu- * i|Je-|sus,|Je- * *|sus.|San- cta|
 (AB) AG FE | A2 G2- G z |!p! =E2 F3 F | F2 F2 =E!<(!E | F2- FE!<)! =D2 | E4-!>(! E z!>)! | %27
w: San- * cta * Ma- *|ri- a, *|San- cta Ma-|ri- a, Ma- ter|De- * * *|i *|
!mf! B3 d"^espressivo" AG | ^F2 G G =FE |!f! B>A AB AF | !>!F>E E2 z2 |"^rit..."!ppp! =E2 F2 z2 | %32
w: o- * ra pro|no- bis pec- * ca-|to- ri- bus pec- ca- *|to- ri- bus|nunc *|
 FG AE FB | A4 G2- | G2 z2 z2 | z2 A2 B2 | d2 B2 A2 | G4- G z | A2 E4 | F4 uG2 |!mp! AG AF GA | %41
w: et in ho- ra mor- tis|no- strae||A- *||men, *|A- men,|A- men,|A- * * * * *|
 (c2 B2)"^rit..." F2 | [Ac]6 |] %43
w: men. * A-|men.|
V:3
!p! e2 d4 | (eg) fe dc | f2 f2- f!<(! z | c4 dc!<)! | d4 c2 | B4-!>(! B z!>)! | (g3 a) fe | d2 d4 | %8
w: A- ve,|A- * ve * Ma- *|ri- a *|gra- ti- a|ple- *|na *|Do- * mi- nus|te- cum|
!<(! e3 f!<)! ec | d>d d2 z2 |!f! z d de f>f |!ff! =e4- e z |!pp! (c2 d3) d | ed/c/ d4 | %14
w: be- * ne- *|di- cta tu|in mu- li- e- ri-|bus *|et be- ne-|di- * * ctus|
!<(! cc de f2!<)! | e6"^rit..." |!pp!!<(! =e6 | f6!<)! |!f! a6- |!>(! a2 g4!>)! ||!pp! e2 d4 | %21
w: fruc- tus ven- tris tu-|i|Je-|sus,|Je-|* sus.|San- cta|
 (eg) fe dc | f2 f2- f z |!p! c2 c2 dc | d2 d2 d!<(!d | cB A4!<)! | G4-!>(! G z!>)! | %27
w: San- * cta * Ma- *|ri- a, *|San- cta Ma- *|ri- a, Ma- ter|De- * *|i *|
!mf! g3 a"^espressivo" fe | d2 d4 |!f! e3 f ec | !>!d>d d2 z2 |"^rit..."!ppp! c4 z2 | dd ec df | %33
w: o- * ra pro|no- bis|pec- * ca- *|to- ri- bus|nunc|et in ho- ra mor- tis|
 =e4 e2- | e2 z2 z2 | z2 f2 g2 | a2 g2 f2 | f4- f z | e2 e4 | d4 ud2 |!mp! (cB ce dc | %41
w: no- strae||A- *||men, *|A- men,|A- men,|A- * * * * *|
 d4)"^rit..." d2 | [ce]6 |] %43
w: men. A-|men.|
V:4
!p! A,4 A,2- | A,2 (A,2 A,)A, | D2 D2- D!<(! z | B,2 A,2 B,A,!<)! | (G,4 A,)G, | %5
w: A- ve,|* A- ve Ma-|ri- a *|gra- * ti- a|ple- * *|
 F,2!>(! E,2- E, z!>)! | E,4 E,E, | E,2 E,4 |!<(! C3 D!<)! CA, | A,>G, G,2 z2 |!f! z B, B,C D>D | %11
w: * na *|Do- mi- nus|te- cum|be- * * ne-|di- cta tu|in mu- li- e- ri-|
!ff! C4- C z |!pp! (A,2 G,3) B, | A,2 G,4 |!<(! A,=A, B,C D!<)!=D | E2- E z z2 |!pp!!<(! C6 | %17
w: bus *|et be- ne-|di- ctus|fruc- tus ven- tris tu- *|i *|Je-|
 B,6-!<)! |!f! B,2 C2!>(! D2 | E6!>)! ||!pp! A,4 A,2- | A,2 A,4 | D2 D2- D z |!p! B,2 A,2 B,A, | %24
w: sus,|* Je- *|sus.|San- cta|* Ma-|ri- a, *|San- cta Ma- *|
 G,2 G,2 B,!<(!B, | A,G, F,4!<)! | E,4-!>(! E, z!>)! |!mf! E,4"^espressivo" E,E, | E,4 E,2 | %29
w: ri- a, Ma- ter|De- * *|i *|o- ra pro|no- bis|
!f! C3 D CA, | !>!A,>G, G,2 z2 |"^rit..."!ppp! C,2 F,2 z2 | D,D, A,A, G,G, | C4 C2- | C2 z2 z2 | %35
w: pec- * ca- *|to- ri- bus|nunc *|et in ho- ra mor- tis|no- strae||
 B,6- | B,6 | D4- D z | C2 C4 | B,4 uB,2 |!mp! A,6- | A,6-"^rit..." | A,6 |] %43
w: A-||men, *|A- men,|A- men,|A-||men.|

